X:1
T:The Diplodocus, pt.1
C:Liz Carroll
R:jig
M:6/8
L:1/8
K:AMix
A2B|:cAA edB|cAA ABc|dff ~g3|aee fed|
cAA BAG|EAA AGE|DFF G2A|1 BAA A2B:|2 BAA A2e|]
efe e2d|cAB AGE|~G3 GEF|GAG FED|
efe e2d|cAB AGE|DFF G2A|BAA A2e||
<abc>
